projects/js-packages/ai-client/src/logo-generator/assets/images/jetpack-logo.svg

<svg fill="none" height="33" viewBox="0 0 32 33" width="32" xmlns="http://www.w3.org/2000/svg"><path d="m16 32.5c8.8366 0 16-7.1634 16-16 0-8.83656-7.1634-16-16-16-8.83656 0-16 7.16344-16 16 0 8.8366 7.16344 16 16 16z" fill="#069e08"/><path clip-rule="evenodd" d="m15.3295 3.67557v15.48093h-7.96945zm1.6183 25.64883v-15.5114h8z" fill="#fff" fill-rule="evenodd"/></svg>

<svg width="32" height="33" viewBox="0 0 32 33" fill="none" xmlns="http://www.w3.org/2000/svg">
	<path d="M16 32.5C24.8366 32.5 32 25.3366 32 16.5C32 7.66344 24.8366 0.5 16 0.5C7.16344 0.5 0 7.66344 0 16.5C0 25.3366 7.16344 32.5 16 32.5Z" fill="#069E08"/>
	<path fill-rule="evenodd" clip-rule="evenodd" d="M15.3295 3.67557V19.1565H7.36005L15.3295 3.67557ZM16.9478 29.3244V13.813H24.9478L16.9478 29.3244Z" fill="white"/>
</svg>
